dist/icons/logo/logo-icon.svg

<svg width="40" height="40" viewBox="0 0 40 40" fill="none" xmlns="http://www.w3.org/2000/svg">
<path d="M0 39.9992V0H40V39.9992L36.9271 39.9871V3.08502H3.08427V36.8527H15.2514C21.0072 36.8527 25.863 33.3938 28.2035 27.7611C30.4696 22.3081 29.1278 12.8904 24.8838 8.93538C31.2166 13.261 35.8636 22.321 31.928 31.4191C29.6312 36.7313 24.8239 40 18.3332 40L0 39.9992ZM13.5883 15.2333V30.6284H9.51502V10.7838H12.2974C16.1845 10.7838 20.4342 11.2135 21.7412 15.7496C19.951 15.1459 18.2636 15.2333 16.3431 15.2333H13.5883Z" fill="#567D9C"/>
</svg>

<svg width="40" height="40" fill="none" xmlns="http://www.w3.org/2000/svg"><path d="M0 40V0h40v40l-3.073-.013V3.085H3.084v33.768h12.167c5.756 0 10.612-3.46 12.952-9.092 2.267-5.453.925-14.87-3.32-18.826 6.334 4.326 10.98 13.386 7.045 22.484C29.631 36.731 24.824 40 18.333 40H0zm13.588-24.767v15.395H9.515V10.784h2.782c3.887 0 8.137.43 9.444 4.966-1.79-.604-3.477-.517-5.398-.517h-2.755z" fill="#567D9C"/></svg>
